images/game/game_dragontiger/icon/game_icon_dragontiger.svg

<svg height="139" viewBox="0 0 134 139" width="134" xmlns="http://www.w3.org/2000/svg" xmlns:xlink="http://www.w3.org/1999/xlink"><mask id="a" fill="#fff"><path d="m0 0h133.961037v137.840775h-133.961037z" fill="#fff" fill-rule="evenodd"/></mask><g fill="none" fill-rule="evenodd" transform="translate(-.058333 .225)"><g fill="#021b3b"><path d="m94.6745687 88.6234627s-.2138152 0-.5782425.0403425"/><path d="m105.729355 95.6296102s-.147922 0-.418217.026895"/><path d="m24.8421046 36.9307348c-.0134475.0147922-.026895.0147922-.026895.0147922v-.0147922z"/><path d="m25.434467 36.3121498c-.2017125.2017125-.4047697.4182172-.59169.618585"/><path d="m80.8370912 57.1557748c0 6.6847522 5.4193425 12.10275 12.10275 12.10275 3.5918273 0 6.7923323-1.5733575 9.0098248-4.03425h30.6603v7.396125s-2.6895 6.72375-13.4475 6.72375h-13.4475s-6.7237498 6.72375-13.4474998 6.72375c-2.1919425 0-5.1234975-.5782425-8.0685-1.5989078l-1.4913277.4437675c3.98046.8189528 7.7982052 2.0830178 11.3886877 3.7518525 4.0476975 1.855755 7.8143418 4.2090675 11.2152148 6.9927 11.848592 9.641858 19.406087 24.326528 19.406087 40.799715l-5.017262.038998h-105.2670298c-7.13927773 0-12.93649498-5.795873-12.93649498-12.93515v-.472008c1.88265 1.090593 4.06248975 1.709178 6.3875625 1.709178 7.04648998 0 12.74822998-5.70174 12.74822998-12.749575 0-7.04649-5.70174-12.7616777-12.74822998-12.7616777-2.32507275 0-4.5049125.618585-6.3875625 1.7091777v-17.145563h5.78376975v-1.9512322s.403425-27.1895003 17.53554003-44.941545v-.0121028s.0134475 0 .0255502-.0147922h-.0255502c-11.0686373 0-11.3631375-11.3617928-11.3631375-11.3617928-6.68340753 0-12.10275003-5.4206872-12.10275003-12.1175422 0-6.68340752 5.4193425-12.10275002 12.10275003-12.10275002 0 0 5.379 16.09800222 20.17125 16.09800222h41.8338277s7.396125-.5513475 7.396125 8.1074978h8.7691148s8.712635-.295845 8.712635 10.758h14.739805c0-4.8411 3.92667-8.76777 8.766425-8.76777 4.8411 0 8.76777 3.92667 8.76777 8.76777v12.775125h-30.6603c-2.2174925-2.47434-5.4179975-4.03425-9.0098248-4.03425-6.6834075 0-12.10275 5.4193425-12.10275 12.10275"/></g><path d="m73.5985709 32.2411881.7786103.7786103c2.9772765 2.9786212 7.0169055 4.6514902 11.2286625 4.6514902v-5.4301005h-10.128657z" fill="#b0936d"/><path d="m43.7724193 88.630052-.7772655.7772655c-2.9786212 2.9786212-7.0182502 4.6514902-11.2286625 4.6514902v-5.4287557h10.1273123z" fill="#b0936d"/><path d="m52.4659591 98.053791v-9.4307318h-2.6895v9.4307318c0 8.743564-7.1137275 15.857292-15.8586367 15.857292h-2.1516v2.6895h2.1516c10.2281685 0 18.5481367-8.321313 18.5481367-18.546792" fill="#957e5c"/><path d="m62.7025996 96.2139041v-7.5911138h-2.6895v7.5911138c0 17.8058349-9.5826885 29.3115159-24.4139363 29.3115159h-3.8325375v2.6895h3.8325375c16.465119 0 27.1034363-12.56131 27.1034363-32.0010159" fill="#957e5c"/><path d="m79.4989305 57.151875c0 7.4149515 6.0325485 13.4475 13.4475 13.4475 3.6012405 0 7.0599375-1.463088 9.5840335-4.03425h28.741342v5.7528405c-.545969 1.0690763-3.404907 5.6775345-12.10275 5.6775345h-14.004227l-.394012.3940118c-.063203.0632032-6.4010097 6.3297382-12.4967615 6.3297382-1.9055107 0-4.4457435-.4854547-7.0155607-1.3165102 1.7037982-3.1386465 2.3089357-6.847467 2.3089357-9.4414898v-1.34475h-14.119875v-11.6119162h.0336188l-.0336188-1.3783688v-20.1954555l-.8471925-.3375322c-.1196827-.0470663-11.2770735-4.5802185-12.4927275-12.1767113h22.75317v-.021516l8.8027335-.0013447c.0147923-.0255503 2.7661508-.0255503 4.8289973 1.9700587 1.662111 1.6069763 2.5052692 4.1122455 2.5052692 7.444536v1.34475h17.4225815v-1.34475c0-4.0947637 3.330945-7.4243647 7.425709-7.4243647 4.093419 0 7.42571 3.329601 7.42571 7.4243647v11.430375h-28.741342c-2.525441-2.571162-5.9841377-4.03425-9.5840335-4.03425-7.4149515 0-13.4475 6.0325485-13.4475 13.4475zm36.2800105 52.548796c-8.898211 15.654235-25.4413255 25.368709-43.474423 25.44267l-7.6825567.004034h-10.349196c6.5099347-2.861628 11.8956585-7.822411 15.2803942-14.029777h2.5456118c15.0975082 0 28.4132227-9.24919 33.7707067-23.1942477 3.871535 3.4089417 7.213239 7.3840227 9.909463 11.7773207zm-27.0388885 25.437291c11.7867335-3.903809 21.9718705-11.883556 28.5853505-22.762583 3.668478 6.864948 5.813355 14.616087 6.025825 22.747791zm-74.3122297.009413c-5.80932005 0-10.6356278-4.297821-11.4613043-9.882568 1.565289.582277 3.2300895.883501 4.91506125.883501 7.77534455 0 14.10104855-6.325704 14.10104855-14.102393 0-7.775345-6.325704-14.1010487-14.10104855-14.1010487-1.7293485 0-3.43852575.317361-5.040123.9278775v-13.684176h23.06918625v-1.34475c0-4.7079698 3.8311928-8.5378178 8.5391625-8.5378178h5.5013723 30.8028435v30.533894c0 16.111449-13.0642463 29.224107-29.1555248 29.307481h-10.8467535zm61.0368577-48.411h-2.0211592v-11.430375h11.3617927c-.2918107 3.2959823-1.7831385 11.430375-9.3406335 11.430375zm-2.0211592 19.103519v-2.903316c8.192217-.606482 14.8796587-6.6753387 16.4099842-14.5784345 5.045502 1.8651683 9.698337 4.4901203 13.8253745 7.7376915-4.732175 13.388331-17.2948295 22.332263-31.5801087 22.332263h-1.2398595c1.662111-3.866156 2.5846095-8.120945 2.5846095-12.588204zm9.6203415-19.4679462c1.4281245.311982 2.8306987.6804435 4.2050332 1.1067292-1.1537955 6.8393985-6.8178825 12.1578848-13.8253747 12.768401v-10.821203h2.0211592c3.3269115 0 5.7851145-1.2358252 7.5991823-3.0539272zm-74.4440153-4.4578463c.00403425-.258192.580932-24.8160165 15.2803943-41.9588895 1.02201 4.1283825 4.0840057 9.085131 11.0403975 9.6203415.5607607 4.5385313 3.6657885 11.4290303 12.6056865 11.4290303h23.2117297v11.6119162h-30.8068777-5.5013723c-5.7367035 0-10.4823262 4.3233713-11.1479775 9.8825678h-14.6819805zm6.3351173-54.9975855h23.0584282c7.5211868 0 9.3984578 5.9088315 9.865086 8.6736375h-23.0570835c-.0403425 0-.0766507-.005379-.1169932-.005379l-.225918-.2272627c-.0685823.0672375-.129096.1385092-.1976783.2057467-7.0599375-.2837422-8.8713157-5.954553-9.3258412-8.6467425zm45.7847032 22.726275c7.519842 0 9.3984578 5.9088315 9.8664308 8.6722928h-23.059773c-7.5211868 0-9.3984578-5.9101763-9.8664308-8.6722928zm-34.4215657-11.3631375h23.0584282c7.519842 0 9.3984578 5.9088315 9.8664308 8.6736375h-23.059773c-7.5225315 0-9.3984578-5.911521-9.865086-8.6736375zm-23.6286023-24.8213955c0-5.6345025 4.34757675-10.2712005 9.865086-10.731105 1.4980515 3.59182725 7.670454 16.0603493 21.074922 16.0603493l41.9266155-.0026895c.0309293-.005379 2.4393765-.1331303 4.136451 1.4603985.9709095.9117405 1.538394 2.25918 1.7333828 3.9818047h-24.1154018v1.34475c0 8.8672815 10.3478513 14.2422473 13.4475 15.6542348v10.4648445c-1.764312-2.409792-4.561392-4.346232-8.7758385-4.6703168-.5352105-4.319337-3.3860805-10.7485867-11.3644822-11.3631375-.5607608-4.539876-3.663099-11.430375-12.6043418-11.430375h-24.555135c-5.93707125 0-10.768758-4.8316867-10.768758-10.768758zm90.2569305 32.935617c3.0404798 0 5.9572425 1.3084418 8.0012625 3.587793l.400736.446457h32.612877v-14.119875c0-5.5766782-4.538532-10.1138647-10.11521-10.1138647-5.122153 0-9.366184 3.824469-10.026456 8.7691147h-12.174022c-.223228-3.4412152-1.325923-6.1387837-3.2838792-8.0335365-2.9127285-2.818596-6.6188595-2.7190845-6.7425765-2.7244635h-7.471431c-.2272628-2.5294747-1.113453-4.5264285-2.6451233-5.949174-2.576541-2.3909655-5.992206-2.167737-6.0379275-2.1583237h-41.8351725c-13.6290412 0-18.6879907-14.56095305-18.896427-15.1808828l-.3092925-.9171195h-.9655305c-7.42167525 0-13.458258 6.03658275-13.458258 13.458258 0 7.0021133 5.3763105 12.7657118 12.215709 13.3950548.4989023 4.0248367 3.01224 9.8771887 9.8099513 11.156046-15.50765705 17.8461772-16.0791758 42.7603605-16.0953128 43.8832267v.6064823h-5.77839075v20.8328672l2.01846975-1.168588c1.726659-.999149 3.70209675-1.528981 5.71115325-1.528981 6.29343005 0 11.41154855 5.119464 11.41154855 11.411549 0 6.29343-5.1181185 11.412893-11.41154855 11.412893-2.0090565 0-3.98449425-.529831-5.71115325-1.528981l-2.01846975-1.168587v2.801114c0 7.870822 6.40504425 14.274521 14.27586605 14.274521h16.3239202 10.6921073v.004034c.0524452 0 .1035457-.004034.1546462-.004034h3.813711 15.9460455v.001345h10.7405183v.002689c.021516 0 .0416872-.002689.0632032-.002689l47.5490155.002689 6.34722-.048411v-1.333992c0-21.498518-12.857155-40.6598607-31.8302327-49.221884 5.5538175-.8861902 10.5778037-5.201493 12.0314787-6.551622h12.9096c11.535265 0 14.573055-7.2589605 14.696772-7.5695977l.095478-.2407103v-8.999067h-32.612877l-.402081.4478018c-2.042675 2.2780065-4.958093 3.5864482-7.9999175 3.5864482-5.9316922 0-10.758-4.8263077-10.758-10.758 0-5.9316922 4.8263078-10.758 10.758-10.758z" fill="#b0936d" mask="url(#a)"/></g></svg>

<?xml version="1.0" encoding="UTF-8"?>
<svg width="134px" height="139px" viewBox="0 0 134 139" version="1.1" xmlns="http://www.w3.org/2000/svg" xmlns:xlink="http://www.w3.org/1999/xlink">
    <title>game_icon</title>
    <defs>
        <polygon id="path-1" points="0 -3.82200938e-14 133.961037 -3.82200938e-14 133.961037 137.840775 0 137.840775"></polygon>
    </defs>
    <g id="Game" stroke="none" stroke-width="1" fill="none" fill-rule="evenodd">
        <g id="WE_games_dt" transform="translate(-653.000000, -162.000000)">
            <g id="Group" transform="translate(638.000000, 150.000000)">
                <g id="Group-53" transform="translate(14.941667, 12.225000)">
                    <path d="M94.6745687,88.6234627 C94.6745687,88.6234627 94.4607535,88.6234627 94.0963262,88.6638052" id="Fill-1" fill="#021B3B"></path>
                    <path d="M105.729355,95.6296102 C105.729355,95.6296102 105.581433,95.6296102 105.311138,95.6565052" id="Fill-3" fill="#021B3B"></path>
                    <path d="M24.8421046,36.9307348 C24.8286571,36.945527 24.8152096,36.945527 24.8152096,36.945527 L24.8152096,36.9307348 L24.8421046,36.9307348 Z" id="Fill-5" fill="#021B3B"></path>
                    <path d="M25.434467,36.3121498 C25.2327545,36.5138623 25.0296973,36.730367 24.842777,36.9307348" id="Fill-7" fill="#021B3B"></path>
                    <path d="M80.8370912,57.1557748 C80.8370912,63.840527 86.2564337,69.2585248 92.9398412,69.2585248 C96.5316685,69.2585248 99.7321735,67.6851673 101.949666,65.2242748 L132.609966,65.2242748 L132.609966,72.6203998 C132.609966,72.6203998 129.920466,79.3441498 119.162466,79.3441498 L105.714966,79.3441498 C105.714966,79.3441498 98.9912162,86.0678998 92.2674662,86.0678998 C90.0755237,86.0678998 87.1439687,85.4896573 84.1989662,84.468992 L82.7076385,84.9127595 C86.6880985,85.7317123 90.5058437,86.9957773 94.0963262,88.664612 C98.1440237,90.520367 101.910668,92.8736795 105.311541,95.657312 C117.160133,105.29917 124.717628,119.98384 124.717628,136.457027 L119.700366,136.496025 L14.4333362,136.496025 C7.29405847,136.496025 1.49684122,130.700152 1.49684122,123.560875 L1.49684122,123.088867 C3.37949122,124.17946 5.55933097,124.798045 7.88440372,124.798045 C14.9308937,124.798045 20.6326337,119.096305 20.6326337,112.04847 C20.6326337,105.00198 14.9308937,99.2867923 7.88440372,99.2867923 C5.55933097,99.2867923 3.37949122,99.9053773 1.49684122,100.99597 L1.49684122,83.850407 L7.28061097,83.850407 L7.28061097,81.8991748 C7.28061097,81.8991748 7.68403597,54.7096745 24.816151,36.9576298 L24.816151,36.945527 C24.816151,36.945527 24.8295985,36.945527 24.8417012,36.9307348 L24.816151,36.9307348 C13.7475137,36.9307348 13.4530135,25.568942 13.4530135,25.568942 C6.76960597,25.568942 1.35026347,20.1482548 1.35026347,13.4513998 C1.35026347,6.76799228 6.76960597,1.34864978 13.4530135,1.34864978 C13.4530135,1.34864978 18.8320135,17.446652 33.6242635,17.446652 L75.4580912,17.446652 C75.4580912,17.446652 82.8542162,16.8953045 82.8542162,25.5541498 L91.623331,25.5541498 C91.623331,25.5541498 100.335966,25.2583048 100.335966,36.3121498 L115.075771,36.3121498 C115.075771,31.4710498 119.002441,27.5443798 123.842196,27.5443798 C128.683296,27.5443798 132.609966,31.4710498 132.609966,36.3121498 L132.609966,49.0872748 L101.949666,49.0872748 C99.7321735,46.6129348 96.5316685,45.0530248 92.9398412,45.0530248 C86.2564337,45.0530248 80.8370912,50.4723673 80.8370912,57.1557748" id="Fill-9" fill="#021B3B"></path>
                    <path d="M73.5985709,32.2411881 L74.3771812,33.0197984 C77.3544577,35.9984196 81.3940867,37.6712886 85.6058437,37.6712886 L85.6058437,32.2411881 L75.4771867,32.2411881 L73.5985709,32.2411881 Z" id="Fill-11" fill="#B0936D"></path>
                    <path d="M43.7724193,88.630052 L42.9951538,89.4073175 C40.0165326,92.3859387 35.9769036,94.0588077 31.7664913,94.0588077 L31.7664913,88.630052 L41.8938036,88.630052 L43.7724193,88.630052 Z" id="Fill-13" fill="#B0936D"></path>
                    <path d="M52.4659591,98.053791 L52.4659591,88.6230592 L49.7764591,88.6230592 L49.7764591,98.053791 C49.7764591,106.797355 42.6627316,113.911083 33.9178224,113.911083 L31.7662224,113.911083 L31.7662224,116.600583 L33.9178224,116.600583 C44.1459909,116.600583 52.4659591,108.27927 52.4659591,98.053791" id="Fill-15" fill="#957E5C"></path>
                    <path d="M62.7025996,96.2139041 L62.7025996,88.6227903 L60.0130996,88.6227903 L60.0130996,96.2139041 C60.0130996,114.019739 50.4304111,125.52542 35.5991633,125.52542 L31.7666258,125.52542 L31.7666258,128.21492 L35.5991633,128.21492 C52.0642823,128.21492 62.7025996,115.65361 62.7025996,96.2139041" id="Fill-17" fill="#957E5C"></path>
                    <mask id="mask-2" fill="white">
                        <use xlink:href="#path-1"></use>
                    </mask>
                    <g id="Clip-20"></g>
                    <path d="M79.4989305,57.151875 C79.4989305,64.5668265 85.531479,70.599375 92.9464305,70.599375 C96.547671,70.599375 100.006368,69.136287 102.530464,66.565125 L131.271806,66.565125 L131.271806,72.3179655 C130.725837,73.3870418 127.866899,77.9955 119.169056,77.9955 L105.164829,77.9955 L104.770817,78.3895118 C104.707614,78.452715 98.3698073,84.71925 92.2740555,84.71925 C90.3685448,84.71925 87.828312,84.2337953 85.2584948,83.4027398 C86.962293,80.2640933 87.5674305,76.5552728 87.5674305,73.96125 L87.5674305,72.6165 L73.4475555,72.6165 L73.4475555,61.0045838 L73.4811743,61.0045838 L73.4475555,59.626215 L73.4475555,39.4307595 L72.600363,39.0932273 C72.4806803,39.046161 61.3232895,34.5130088 60.1076355,26.916516 L82.8608055,26.916516 L82.8608055,26.895 L91.663539,26.8936553 C91.6783313,26.868105 94.4296898,26.868105 96.4925363,28.863714 C98.1546473,30.4706903 98.9978055,32.9759595 98.9978055,36.30825 L98.9978055,37.653 L116.420387,37.653 L116.420387,36.30825 C116.420387,32.2134863 119.751332,28.8838853 123.846096,28.8838853 C127.939515,28.8838853 131.271806,32.2134863 131.271806,36.30825 L131.271806,47.738625 L102.530464,47.738625 C100.005023,45.167463 96.5463263,43.704375 92.9464305,43.704375 C85.531479,43.704375 79.4989305,49.7369235 79.4989305,57.151875 L79.4989305,57.151875 Z M115.778941,109.700671 C106.88073,125.354906 90.3376155,135.06938 72.304518,135.143341 L64.6219613,135.147375 L54.2727653,135.147375 C60.7827,132.285747 66.1684238,127.324964 69.5531595,121.117598 L72.0987713,121.117598 C87.1962795,121.117598 100.511994,111.868408 105.869478,97.9233503 C109.741013,101.332292 113.082717,105.307373 115.778941,109.700671 L115.778941,109.700671 Z M88.7400525,135.137962 C100.526786,131.234153 110.711923,123.254406 117.325403,112.375379 C120.993881,119.240327 123.138758,126.991466 123.351228,135.12317 L88.7400525,135.137962 Z M14.4278228,135.147375 C8.61850275,135.147375 3.792195,130.849554 2.9665185,125.264807 C4.5318075,125.847084 6.196608,126.148308 7.88157975,126.148308 C15.6569243,126.148308 21.9826283,119.822604 21.9826283,112.045915 C21.9826283,104.27057 15.6569243,97.9448663 7.88157975,97.9448663 C6.15223125,97.9448663 4.443054,98.2622273 2.84145675,98.8727438 L2.84145675,85.1885678 L25.910643,85.1885678 L25.910643,83.8438178 C25.910643,79.135848 29.7418358,75.306 34.4498055,75.306 L39.9511778,75.306 L70.7540213,75.306 L70.7540213,105.839894 C70.7540213,121.951343 57.689775,135.064001 41.5984965,135.147375 L30.751743,135.147375 L14.4278228,135.147375 Z M75.4646805,86.736375 L73.4435213,86.736375 L73.4435213,75.306 L84.805314,75.306 C84.5135033,78.6019823 83.0221755,86.736375 75.4646805,86.736375 L75.4646805,86.736375 Z M73.4435213,105.839894 L73.4435213,102.936578 C81.6357383,102.330096 88.32318,96.2612393 89.8535055,88.3581435 C94.8990075,90.2233118 99.5518425,92.8482638 103.67888,96.095835 C98.946705,109.484166 86.3840505,118.428098 72.0987713,118.428098 L70.8589118,118.428098 C72.5210228,114.561942 73.4435213,110.307153 73.4435213,105.839894 L73.4435213,105.839894 Z M83.0638628,86.3719478 C84.4919873,86.6839298 85.8945615,87.0523913 87.268896,87.478677 C86.1151005,94.3180755 80.4510135,99.6365618 73.4435213,100.247078 L73.4435213,89.425875 L75.4646805,89.425875 C78.791592,89.425875 81.249795,88.1900498 83.0638628,86.3719478 L83.0638628,86.3719478 Z M8.6198475,81.9141015 C8.62388175,81.6559095 9.2007795,57.098085 23.9002418,39.955212 C24.9222518,44.0835945 27.9842475,49.040343 34.9406393,49.5755535 C35.5014,54.1140848 38.6064278,61.0045838 47.5463258,61.0045838 L70.7580555,61.0045838 L70.7580555,72.6165 L39.9511778,72.6165 L34.4498055,72.6165 C28.713102,72.6165 23.9674793,76.9398713 23.301828,82.4990678 L8.6198475,82.4990678 L8.6198475,81.9141015 Z M14.9549648,26.916516 L38.013393,26.916516 C45.5345798,26.916516 47.4118508,32.8253475 47.878479,35.5901535 L24.8213955,35.5901535 C24.781053,35.5901535 24.7447448,35.5847745 24.7044023,35.5847745 L24.4784843,35.3575118 C24.409902,35.4247493 24.3493883,35.496021 24.280806,35.5632585 C17.2208685,35.2795163 15.4094903,29.6087055 14.9549648,26.916516 L14.9549648,26.916516 Z M60.739668,49.642791 C68.25951,49.642791 70.1381258,55.5516225 70.6060988,58.3150838 L47.5463258,58.3150838 C40.025139,58.3150838 38.147868,52.4049075 37.679895,49.642791 L60.739668,49.642791 Z M26.3181023,38.2796535 L49.3765305,38.2796535 C56.8963725,38.2796535 58.7749883,44.188485 59.2429613,46.953291 L36.1831883,46.953291 C28.6606568,46.953291 26.7847305,41.04177 26.3181023,38.2796535 L26.3181023,38.2796535 Z M2.6895,13.458258 C2.6895,7.8237555 7.03707675,3.1870575 12.554586,2.727153 C14.0526375,6.31898025 20.22504,18.7875023 33.629508,18.7875023 L75.5561235,18.7848128 C75.5870528,18.7794338 77.9955,18.6516825 79.6925745,20.2452113 C80.663484,21.1569518 81.2309685,22.5043913 81.4259573,24.227016 L57.3105555,24.227016 L57.3105555,25.571766 C57.3105555,34.4390475 67.6584068,39.8140133 70.7580555,41.2260008 L70.7580555,51.6908453 C68.9937435,49.2810533 66.1966635,47.3446133 61.982217,47.0205285 C61.4470065,42.7011915 58.5961365,36.2719418 50.6177348,35.657391 C50.056974,31.117515 46.9546358,24.227016 38.013393,24.227016 L13.458258,24.227016 C7.52118675,24.227016 2.6895,19.3953293 2.6895,13.458258 L2.6895,13.458258 Z M92.9464305,46.393875 C95.9869103,46.393875 98.903673,47.7023168 100.947693,49.981668 L101.348429,50.428125 L133.961306,50.428125 L133.961306,36.30825 C133.961306,30.7315718 129.422774,26.1943853 123.846096,26.1943853 C118.723943,26.1943853 114.479912,30.0188543 113.81964,34.9635 L101.645618,34.9635 C101.42239,31.5222848 100.319695,28.8247163 98.3617388,26.9299635 C95.4490103,24.1113675 91.7428793,24.210879 91.6191623,24.2055 L84.1477313,24.2055 C83.9204685,21.6760253 83.0342783,19.6790715 81.502608,18.256326 C78.926067,15.8653605 75.510402,16.088589 75.4646805,16.0980023 L33.629508,16.0980023 C20.0004668,16.0980023 14.9415173,1.53704925 14.733081,0.9171195 L14.4237885,1.91100469e-14 L13.458258,1.91100469e-14 C6.03658275,1.91100469e-14 2.67540656e-13,6.03658275 2.67540656e-13,13.458258 C2.67540656e-13,20.4603713 5.3763105,26.2239698 12.215709,26.8533128 C12.7146113,30.8781495 15.227949,36.7305015 22.0256603,38.0093588 C6.51800325,55.855536 5.9464845,80.7697193 5.9303475,81.8925855 L5.9303475,82.4990678 L0.15195675,82.4990678 L0.15195675,103.331935 L2.1704265,102.163347 C3.8970855,101.164198 5.87252325,100.634366 7.88157975,100.634366 C14.1750098,100.634366 19.2931283,105.75383 19.2931283,112.045915 C19.2931283,118.339345 14.1750098,123.458808 7.88157975,123.458808 C5.87252325,123.458808 3.8970855,122.928977 2.1704265,121.929827 L0.15195675,120.76124 L0.15195675,123.562354 C0.15195675,131.433176 6.557001,137.836875 14.4278228,137.836875 L30.751743,137.836875 L41.4438503,137.836875 L41.4438503,137.840909 C41.4962955,137.840909 41.547396,137.836875 41.5984965,137.836875 L45.4122075,137.836875 L61.358253,137.836875 L61.358253,137.83822 L72.0987713,137.83822 L72.0987713,137.840909 C72.1202873,137.840909 72.1404585,137.83822 72.1619745,137.83822 L119.71099,137.840909 L126.05821,137.792498 L126.05821,136.458506 C126.05821,114.959988 113.201055,95.7986453 94.2279773,87.236622 C99.7817948,86.3504318 104.805781,82.035129 106.259456,80.685 L119.169056,80.685 C130.704321,80.685 133.742111,73.4260395 133.865828,73.1154023 L133.961306,72.874692 L133.961306,63.875625 L101.348429,63.875625 L100.946348,64.3234268 C98.903673,66.6014333 95.988255,67.909875 92.9464305,67.909875 C87.0147383,67.909875 82.1884305,63.0835673 82.1884305,57.151875 C82.1884305,51.2201828 87.0147383,46.393875 92.9464305,46.393875 L92.9464305,46.393875 Z" id="Fill-19" fill="#B0936D" mask="url(#mask-2)"></path>
                </g>
            </g>
        </g>
    </g>
</svg>
